!!!!SEGMENT: pl-cz--iii-623--001-005_raszek-waclaw--nieszpory-in-exitu.krn
!!!cenid: 18xx:1008
!!!COM: Raszek, Wacław
!!!COM-rismID:
!!!CDT: <1848->1848
!!!CNT:
!!!OPR: Nieszpory
!!!OTL: In exitu
!!!OMV: 005
!!!PDT:
!!!AGN: Sacred
!!!SMS-siglum: PL-CZ
!!!SMS-shelfmark: III-623
!!!SMS-shelfwork: 001-005 M
!!!SMS-variant:
!!!SMS-altvar:
!!!NIFC-rismSourceID: 300001052
!!!NIFC-islandoraID: pl-cz:39506
!!!URL-pdf-islandora: https://repozytorium.nifc.pl/islandora/object/pl-cz%3A39506/datastream/PDF/view
!!!URL-scan:
!!!ONB-nifc: UWAGA: części Nieszporów: Dixit Dominus, Confitebor, Beatus vir, Laudate pueri, In exitu, Laudate Dominum, Iste confessor, Magnificat, Salve Regina. Uwaga: w Canto 1,2 i Tenorze zaburzona kolejność części
!!!AIN: 1 bass 2 clarb 1 organ 2 soprn 1 tenor
!!!key: F
**kern	**kern	**text	**text	**text	**kern	**text	**text	**text	**kern	**text	**text	**text	**kern	**text	**text	**text	**kern	**kern
*part7	*part6	*part6	*part6	*part6	*part5	*part5	*part5	*part5	*part4	*part4	*part4	*part4	*part3	*part3	*part3	*part3	*part2	*part1
*staff7	*staff6	*staff6	*staff6	*staff6	*staff5	*staff5	*staff5	*staff5	*staff4	*staff4	*staff4	*staff4	*staff3	*staff3	*staff3	*staff3	*staff2	*staff1
*I"Baſso.	*I"Baſso	*	*	*	*I"Tenore	*	*	*	*I"Canto Secondo	*	*	*	*I"Canto Primo	*	*	*	*I"Clarinetto Secondo.	*I"Clarinetto Primo
*I'org	*I'B	*	*	*	*I'T	*	*	*	*I'S 2	*	*	*	*I'S 1	*	*	*	*I'cl 2	*I'cl 1
*Iorgan	*Ibass	*	*	*	*Itenor	*	*	*	*Isoprn	*	*	*	*Isoprn	*	*	*	*Iclarb	*Iclarb
*ICklav	*ICvox	*	*	*	*ICvox	*	*	*	*ICvox	*	*	*	*ICvox	*	*	*	*ICww	*ICww
*IGacmp	*IGcoro	*	*	*	*IGcoro	*	*	*	*IGcoro	*	*	*	*IGcoro	*	*	*	*	*
*>[A,A,A]	*>[A,A,A]	*>[A,A,A]	*>[A,A,A]	*>[A,A,A]	*>[A,A,A]	*>[A,A,A]	*>[A,A,A]	*>[A,A,A]	*>[A,A,A]	*>[A,A,A]	*>[A,A,A]	*>[A,A,A]	*>[A,A,A]	*>[A,A,A]	*>[A,A,A]	*>[A,A,A]	*>[A,A,A]	*>[A,A,A]
*>A	*>A	*>A	*>A	*>A	*>A	*>A	*>A	*>A	*>A	*>A	*>A	*>A	*>A	*>A	*>A	*>A	*>A	*>A
*clefF4	*clefF4	*	*	*	*clefC4	*	*	*	*clefC1	*	*	*	*clefC1	*	*	*	*clefG2	*clefG2
*	*	*	*	*	*	*	*	*	*	*	*	*	*	*	*	*	*ITrd1c2	*ITrd1c2
*k[b-]	*k[b-]	*	*	*	*k[b-]	*	*	*	*k[b-]	*	*	*	*k[b-]	*	*	*	*k[b-]	*k[b-]
*F:	*F:	*	*	*	*F:	*	*	*	*F:	*	*	*	*F:	*	*	*	*F:	*F:
*M2/2	*M2/2	*	*	*	*M2/2	*	*	*	*M2/2	*	*	*	*M2/2	*	*	*	*M2/2	*M2/2
*met(c|)	*met(c|)	*	*	*	*met(c|)	*	*	*	*met(c|)	*	*	*	*met(c|)	*	*	*	*met(c|)	*met(c|)
=1	=1	=1	=1	=1	=1	=1	=1	=1	=1	=1	=1	=1	=1	=1	=1	=1	=1	=1
*	*2\right	*	*	*	*2\right	*	*	*	*	*	*	*	*2\right	*	*	*	*	*
!LO:TX:a:t=Largo \nin Exitu	!LO:TX:a:t=Largo in \nExitu	!	!	!	!LO:TX:a:t=Largo in \nExitu	!	!	!	!LO:TX:a:t=Largo Psalm 113.\nin Exitu	!	!	!	!LO:TX:a:t=Largo Psalm 113.\nin Exitu	!	!	!	!LO:TX:a:t=Largo\nin Exitu	!LO:TX:a:t=Largo\nin Exitu
!	!	!	!	!	!	!	!	!	!	!	!	!	!	!	!	!	!	!LO:TX:a:t=in B.
4FF/	2F\	Kie-	Pęd	Cóż	2c\	Kie-	Pęd	Cóż	2f/	Kie-	Pęd	Cóż	2a\	Kie-	Pęd	Cóż	4ff\	4aa\
4F\	.	.	.	.	.	.	.	.	.	.	.	.	.	.	.	.	8.ff\L	8.aa\L
.	.	.	.	.	.	.	.	.	.	.	.	.	.	.	.	.	16ff\Jk	16aa\Jk
4FF/	4F\	-dy	mo-	to	4c\	-dy	mo-	to	4f/	-dy	mo-	to	4a\	-dy	mo-	to	4ff\	4aa\
4F\	4F\	z E-	-rza	ci	4B-\	z E-	-rza	ci	4g/	z E-	-rza	ci	4b-\	z E-	-rza	ci	4gg\	4bb-\
=2	=2	=2	=2	=2	=2	=2	=2	=2	=2	=2	=2	=2	=2	=2	=2	=2	=2	=2
*	*	*	*	*	*	*	*	*	*2\right	*	*	*	*	*	*	*	*	*
4FF/	2.F\	-gi-	ra-	mo-	2.A\	-gi-	ra-	mo-	2.a\	-gi-	ra-	mo-	2.cc\	-gi-	ra-	mo-	4aa\	4ccc\
4F\	.	.	.	.	.	.	.	.	.	.	.	.	.	.	.	.	8.aa\L	8.ccc\L
!	!	!	!	!	!	!	!	!	!	!	!	!	!	!	!	!	!LO:N:vis=8	!
.	.	.	.	.	.	.	.	.	.	.	.	.	.	.	.	.	16aa\Jk	16ccc\Jk
4FF/	.	.	.	.	.	.	.	.	.	.	.	.	.	.	.	.	4ff\	4aa\
4F\	4F\	-ptu	-zem	-rze!	4c\	-ptu	-zem	-rze!	4f/	-ptu	-zem	-rze!	4a\	-ptu	-zem	-rze	4a\	4ff\
=3	=3	=3	=3	=3	=3	=3	=3	=3	=3	=3	=3	=3	=3	=3	=3	=3	=3	=3
4BB-/	4BB-/	I-	na	Kto	4B-\	I-	na	Kto	4f/	I-	na	Kto	4dd\	I-	na	Kto	4b-\	4dd\
4C/	4C/	-zra-	pół	cię	4B-\	-zra-	pół	cię	4f/	-zra-	pół	cię	4dd\	-zra-	pół	cię	8.b-\L	8.dd\L
.	.	.	.	.	.	.	.	.	.	.	.	.	.	.	.	.	16b-\Jk	16dd\Jk
!	!	!	!	!	!LO:LB:g=original	!	!	!	!	!	!	!	!	!	!	!	!	!
4D/	4D/	-el	się	tak	4B-\	-el	się	tak	4f/	-el	się	tak	4dd\	-el	się	tak	4b-\	4dd\
4E/	4E/	wy-	roz-	ro-	4B-\	wy-	roz-	ro-	4g/	wy-	roz-	ro-	4dd\	wy-	roz-	ro-	4r	4r
=4	=4	=4	=4	=4	=4	=4	=4	=4	=4	=4	=4	=4	=4	=4	=4	=4	=4	=4
*2\right	*	*	*	*	*	*	*	*	*	*	*	*	*	*	*	*	*	*
2F\	2F\	-cho-	-sa-	-zdzie-	2B-\	-cho-	-sa-	-zdzie-	2f/	-cho-	-sa-	-zdzie-	2dd\	-cho-	-sa-	-zdzie-	4dd\	4ff\
.	.	.	.	.	.	.	.	.	.	.	.	.	.	.	.	.	8.b-\L	8.dd\L
.	.	.	.	.	.	.	.	.	.	.	.	.	.	.	.	.	16b-\Jk	16dd\Jk
!	!	!	!	!	!	!	!	!	!	!	!	!	!	!	!	!	!	!LO:LB:g=original
2FF/	2FF/	-dził	-dził	-ra!	2A\	-dził	-dził	-ra!	2f/	-dził	-dził	-ra!	2cc\	-dził	-dził	-ra	4a\	4cc\
.	.	.	.	.	.	.	.	.	.	.	.	.	.	.	.	.	4r	(8cc\L
.	.	.	.	.	.	.	.	.	.	.	.	.	.	.	.	.	.	8ff\J)
!	!LO:LB:g=original	!	!	!	!	!	!	!	!LO:LB:g=original	!	!	!	!LO:LB:g=original	!	!	!	!LO:LB:g=original	!
=5	=5	=5	=5	=5	=5	=5	=5	=5	=5	=5	=5	=5	=5	=5	=5	=5	=5	=5
2F\	2F\	Dom	Jor-	Kto	2c\	Dom	Jor-	Kto	2f/	Dom	Jor-	Kto	2a\	Dom	Jor-	Kto	8A/L	8aa\L
.	.	.	.	.	.	.	.	.	.	.	.	.	.	.	.	.	8c/	8ff\J
.	.	.	.	.	.	.	.	.	.	.	.	.	.	.	.	.	8A/	4cc\
.	.	.	.	.	.	.	.	.	.	.	.	.	.	.	.	.	8c/J	.
*	*	*	*	*	*	*	*	*	*	*	*	*	*	*	*	*	*rep	*
4F\	4F\	się	-dan	twe	4c\	się	-dan	twe	4f/	się	-dan	twe	4a\	się	-dan	twe	8A/L	8r
.	.	.	.	.	.	.	.	.	.	.	.	.	.	.	.	.	8c/	8cc\L
4F\	4F\	Ja-	w tył	Jor-	4c\	Ja-	w tył	Jor-	4f/	Ja-	w tył	Jor-	4a\	Ja-	w tył	Jor-	8A/	8ff\
.	.	.	.	.	.	.	.	.	.	.	.	.	.	.	.	.	8c/J	8aa\J
*	*	*	*	*	*	*	*	*	*	*	*	*	*	*	*	*	*Xrep	*
!LO:LB:g=original	!	!	!	!	!	!	!	!	!	!	!	!	!	!	!	!	!	!
=6	=6	=6	=6	=6	=6	=6	=6	=6	=6	=6	=6	=6	=6	=6	=6	=6	=6	=6
2.E\	2.E\	-ko-	swo-	-da-	2.c\	-ku-	swo-	-da-	2.g/	-ku-	swo-	-da-	2.b-\	-ku-	swo-	-da-	8G/L	4bb-\
.	.	.	.	.	.	.	.	.	.	.	.	.	.	.	.	.	8c/	.
.	.	.	.	.	.	.	.	.	.	.	.	.	.	.	.	.	8G/	8cc\L
.	.	.	.	.	.	.	.	.	.	.	.	.	.	.	.	.	8c/J	8ee\J
.	.	.	.	.	.	.	.	.	.	.	.	.	.	.	.	.	8G/L	8gg\L
.	.	.	.	.	.	.	.	.	.	.	.	.	.	.	.	.	8c/	8bb-\
4F\	4F\	-ba	-ie	-nie	4c\	-ba	-ie	-nie	4f/	-ba	-ie	-nie	4a\	-ba	-ie	-nie	8A/	8aa\
.	.	.	.	.	.	.	.	.	.	.	.	.	.	.	.	.	8c/J	8ff\J
!	!	!	!	!	!LO:LB:g=original	!	!	!	!	!	!	!	!	!	!	!	!	!
=7	=7	=7	=7	=7	=7	=7	=7	=7	=7	=7	=7	=7	=7	=7	=7	=7	=7	=7
4C/	4C/	z wię-	wo-	w tył	4c\	z wię-	wo-	w tył	4e/	z wię-	wo-	w tył	4g\	z wię-	wo-	w tył	8e/L	8gg\L
.	.	.	.	.	.	.	.	.	.	.	.	.	.	.	.	.	8g/	8cc\
4C/	4C/	-zów	-dy	wo-	4c\	-zów	-dy	wo-	4e/	-zów	-dy	wo-	4g\	-zów	-dy	wo-	8cc/	8ee\
.	.	.	.	.	.	.	.	.	.	.	.	.	.	.	.	.	8ee/J	8gg\J
4C/	4C/	o-	od-	-dy	4A\	o-	od-	-dy	4f/	o-	od-	-dy	4cc\	o-	od-	-dy	8ff\L	8aa\L
.	.	.	.	.	.	.	.	.	.	.	.	.	.	.	.	.	8a\	8cc\
4C/	4C/	-swo-	-pro-	od-	4c\	-swo-	-pro-	od-	4f/	-swo-	-pro-	od-	4a\	-swo-	-pro-	od-	8cc\	8ff\
.	.	.	.	.	.	.	.	.	.	.	.	.	.	.	.	.	8ff\J	8aa\J
=8	=8	=8	=8	=8	=8	=8	=8	=8	=8	=8	=8	=8	=8	=8	=8	=8	=8	=8
2C/	2C/	-bo-	-wa-	-pie-	2c\	-bo-	-wa-	-pie-	2f/	-bo-	-wa-	-pie-	2a\	-bo-	-wa-	-pie-	4.aa\	4.ccc\
.	.	.	.	.	.	.	.	.	.	.	.	.	.	.	.	.	8ff\	8aa\
8C/L	4C/	-dził	-dził	-ra	4c\	-dził	-dził	-ra	4e/	-dził	-dził	-ra	4g\	-dził	-dził	-ra	4ee\	4gg\
8BB-/	.	.	.	.	.	.	.	.	.	.	.	.	.	.	.	.	.	.
8AA/	4r	.	.	.	4r	.	.	.	4r	.	.	.	4r	.	.	.	4r	4r
8GG/J	.	.	.	.	.	.	.	.	.	.	.	.	.	.	.	.	.	.
!	!LO:PB:g=original	!	!	!	!	!	!	!	!LO:LB:g=original	!	!	!	!LO:LB:g=original	!	!	!	!	!LO:LB:g=original
=9	=9	=9	=9	=9	=9	=9	=9	=9	=9	=9	=9	=9	=9	=9	=9	=9	=9	=9
4FF/	2F\	Wiel-	Gó-	Gó-	2c\	Wiel-	Gó-	Gó-	2f/	Wiel-	Gó-	Gó-	2a\	Wiel-	Gó-	Gó-	8r	8r
.	.	.	.	.	.	.	.	.	.	.	.	.	.	.	.	.	8a\L	8ff\L
4F\	.	.	.	.	.	.	.	.	.	.	.	.	.	.	.	.	8a\	8ff\
.	.	.	.	.	.	.	.	.	.	.	.	.	.	.	.	.	8a\J	8ff\J
!	!	!	!	!	!	!	!	!	!	!	!	!	!	!	!	!	!LO:LB:g=original	!
4G\	4G\	-ka	-ry!	-ry!	4B-\	-ka	-ry!	-ry!	4e/	-ka	-ry!	-ry!	4b-\	-ka	-ry	-ry	8r	8r
.	.	.	.	.	.	.	.	.	.	.	.	.	.	.	.	.	8b-\	8ff\
4A\	4A\	tam	wznie-	cze-	4A\	tam	wznie-	cze-	4f/	tam	wznie-	cze-	4cc\	tam	wznie-	cze-	8r	8r
.	.	.	.	.	.	.	.	.	.	.	.	.	.	.	.	.	8cc\	8ff\
!	!	!	!	!	!LO:LB:g=original	!	!	!	!	!	!	!	!	!	!	!	!	!
=10	=10	=10	=10	=10	=10	=10	=10	=10	=10	=10	=10	=10	=10	=10	=10	=10	=10	=10
4B-\	2.B-\	Pa-	-sio-	-mu-	2.B-\	Pa-	-sio-	-mu-	2.f/	Pa-	-sio-	-mu-	2.dd\	Pa-	-sio-	-mu-	8r	8r
.	.	.	.	.	.	.	.	.	.	.	.	.	.	.	.	.	8dd\L	8ff\L
4BB-/	.	.	.	.	.	.	.	.	.	.	.	.	.	.	.	.	8dd\	8ff\
.	.	.	.	.	.	.	.	.	.	.	.	.	.	.	.	.	8dd\J	8ff\J
4B-\	.	.	.	.	.	.	.	.	.	.	.	.	.	.	.	.	8r	8r
.	.	.	.	.	.	.	.	.	.	.	.	.	.	.	.	.	8dd\	8ff\
4A\	4A\	-nie	-ne	-śćie	4d\	-nie	-ne	-śćie	4f#X/	-nie	-ne	-śćie	4cc\	-nie	-ne	-śćie	8r	8r
.	.	.	.	.	.	.	.	.	.	.	.	.	.	.	.	.	8cc\	8ff#X\
!LO:LB:g=original	!	!	!	!	!	!	!	!	!	!	!	!	!	!	!	!	!	!
=11	=11	=11	=11	=11	=11	=11	=11	=11	=11	=11	=11	=11	=11	=11	=11	=11	=11	=11
4G\	4G\	ła-	iak	iak	4d\	ła-	iak	iak	4g/	ła-	iak	iak	4b-\	ła-	iak	iak	8r	8r
.	.	.	.	.	.	.	.	.	.	.	.	.	.	.	.	.	8b-\L	8gg\L
4GG/	4G\	-ska	ca-	ca-	4d\	-ska	ca-	ca-	4g/	-ska	ca-	ca-	4b-\	-ska	ca-	ca-	8dd\	8bb-\
.	.	.	.	.	.	.	.	.	.	.	.	.	.	.	.	.	8dd\J	8bb-\J
4D\	4D\	two-	-py!	-py	4c\	two-	-py!	-py	4f#X/	two-	-py!	-py	4a\	two-	-py	-py	8r	8r
.	.	.	.	.	.	.	.	.	.	.	.	.	.	.	.	.	8a\L	8ff#X\L
4DD/	4D\	-ia	a	ska-	4c\	-ia	a	ska-	4f#/	-ia	a	ska-	4dd\	-ia	a	ska-	8cc\	8aa\
.	.	.	.	.	.	.	.	.	.	.	.	.	.	.	.	.	8cc\J	8aa\J
=12	=12	=12	=12	=12	=12	=12	=12	=12	=12	=12	=12	=12	=12	=12	=12	=12	=12	=12
4GG/	2GG/	by-	ska-	-ka-	(>4B-/	by-	ska-	-ka-	(4g\	by-	ska-	-ka-	(4b-\	by-	ska-	-ka-	8r	8r
.	.	.	.	.	.	.	.	.	.	.	.	.	.	.	.	.	8dd\	8bb-\
4D/	.	.	.	.	4A/)	.	.	.	4a\)	.	.	.	4cc\)	.	.	.	8r	8r
.	.	.	.	.	.	.	.	.	.	.	.	.	.	.	.	.	8cc\	8aa\
4G/	4G\	-ła	-ły	-ły	4G/	-ła,	-ły,	-ły	4b-\	-ła	-ły	-ły	4dd\	-ła	-ły	-ły	8r	8r
.	.	.	.	.	.	.	.	.	.	.	.	.	.	.	.	.	8dd\L	8bb-\L
4r	4r	.	.	.	4r	.	.	.	4r	.	.	.	4r	.	.	.	8dd\	8bb-\
.	.	.	.	.	.	.	.	.	.	.	.	.	.	.	.	.	8b-\J	8gg\J
!	!LO:LB:g=original	!	!	!	!	!	!	!	!LO:LB:g=original	!	!	!	!LO:LB:g=original	!	!	!	!	!LO:LB:g=original
=13	=13	=13	=13	=13	=13	=13	=13	=13	=13	=13	=13	=13	=13	=13	=13	=13	=13	=13
2AA/	2A\	I	Ja-	I	2e\	I	Ja-	I	2g\	I	Ja-	I	2cc#X\	I	Ja-	I	8r	8r
.	.	.	.	.	.	.	.	.	.	.	.	.	.	.	.	.	8g/L	8ee\L
.	.	.	.	.	.	.	.	.	.	.	.	.	.	.	.	.	8g/	8ee\
.	.	.	.	.	.	.	.	.	.	.	.	.	.	.	.	.	8g/J	8ee\J
!	!	!	!	!	!	!	!	!	!	!	!	!	!	!	!	!	!LO:LB:g=original	!
4A\	4A\	nie-	-ko	wy	4e\	nie-	-ko	wy	4g\	nie-	-ko	wy	4cc#\	nie-	-ko	wy	8r	8r
.	.	.	.	.	.	.	.	.	.	.	.	.	.	.	.	.	8g/L	8gg\L
4AA/	4A\	-po-	we-	dla-	4e\	-po-	we-	dla-	4g\	-po-	we-	dla-	4cc#\	-po-	we-	dla-	8g/	8ee\
.	.	.	.	.	.	.	.	.	.	.	.	.	.	.	.	.	8g/J	8cc#X\J
!	!	!	!	!	!LO:LB:g=original	!	!	!	!	!	!	!	!	!	!	!	!	!
=14	=14	=14	=14	=14	=14	=14	=14	=14	=14	=14	=14	=14	=14	=14	=14	=14	=14	=14
2.BB-/	2.B-\	-do-	-so-	-cze-	2.d\	-do-	-so-	-cze-	2.f/	-do-	-so-	-cze-	2.dd\	-do-	-so-	-cze-	8r	8r
.	.	.	.	.	.	.	.	.	.	.	.	.	.	.	.	.	8f/L	8dd\L
.	.	.	.	.	.	.	.	.	.	.	.	.	.	.	.	.	8f/	8dd\
.	.	.	.	.	.	.	.	.	.	.	.	.	.	.	.	.	8f/J	8dd\J
.	.	.	.	.	.	.	.	.	.	.	.	.	.	.	.	.	8r	8r
.	.	.	.	.	.	.	.	.	.	.	.	.	.	.	.	.	8dd\L	8ff\L
4D/	4d\	-bna	-łe	-go,	4B-\	-bna	-łe	-go,	4f/	-bna	-łe	-go	4b-\	-bna	-łe	-go	8ff\	8bb-\
.	.	.	.	.	.	.	.	.	.	.	.	.	.	.	.	.	8ff\J	8bb-\J
=15	=15	=15	=15	=15	=15	=15	=15	=15	=15	=15	=15	=15	=15	=15	=15	=15	=15	=15
4C/	4c\	ku	ia-	iak	4c\	ku	ia-	iak	4f/	ku	ia-	iak	4a\	ku	ia-	iak	8r	8r
.	.	.	.	.	.	.	.	.	.	.	.	.	.	.	.	.	8ff\L	8aa\L
4CC/	4C/	wier-	-gnię-	ia-	4A\	wier-	-gnię-	ia-	4a/	wier-	-gnię-	ia-	4cc\	wie-	-gnię-	ia-	8aa\	8ccc\
.	.	.	.	.	.	.	.	.	.	.	.	.	.	.	.	.	8aa\J	8ccc\J
4CC/	4C/	-no-	-ta	-gnię-	4G\	-no-	-ta	-gnię-	4b-/	-no-	-ta	-gnię-	4dd\	-rze-	-ta	-gnię-	8r	8r
.	.	.	.	.	.	.	.	.	.	.	.	.	.	.	.	.	8gg\L	8bb-\L
4CC/	4C/	-śći	ska-	-ta,	4B-\	-śći	ska-	-ta;	4g/	-śći	ska-	-ta	4ee\	-niu	ska-	-ta	8ee\	8gg\
.	.	.	.	.	.	.	.	.	.	.	.	.	.	.	.	.	8ee\J	8gg\J
=16	=16	=16	=16	=16	=16	=16	=16	=16	=16	=16	=16	=16	=16	=16	=16	=16	=16	=16
2CC/	2C/	si-	-ka-	ska-	2B-\	si-	-ka-	ska-	2g\	Si-	-ka-	ska-	2ee\	si-	-ka-	ska-	8r	8r
.	.	.	.	.	.	.	.	.	.	.	.	.	.	.	.	.	8ee\L	8gg\L
.	.	.	.	.	.	.	.	.	.	.	.	.	.	.	.	.	8ee\	8gg\
.	.	.	.	.	.	.	.	.	.	.	.	.	.	.	.	.	8ee\J	8gg\J
4FF/	4F\	-ła.	-ły	-ły.	4A\	-ła.	-ły	-ły	4a\	-ła.	-ły	-ły.	4ff\	-ła.	-ły	-ły	4ff\	4ff\
!LO:TX:b:i:t=Da Capo	!	!	!	!	!LO:TX:b:i:t=Da Capo	!	!	!	!LO:TX:b:i:t=Da \nCapo	!	!	!	!	!	!	!	!LO:TX:b:i:t=D Capo.	!LO:TX:b:i:t=Da \nCapo
4r	4r	.	.	.	4r	.	.	.	4r	.	.	.	4r	.	.	.	4r	4r
==:|!	==:|!	==:|!	==:|!	==:|!	==:|!	==:|!	==:|!	==:|!	==:|!	==:|!	==:|!	==:|!	==:|!	==:|!	==:|!	==:|!	==:|!	==:|!
*-	*-	*-	*-	*-	*-	*-	*-	*-	*-	*-	*-	*-	*-	*-	*-	*-	*-	*-
!!!system-decoration: [(s1,s2,s3,s4,s5,s6,s7)]
!!!RDF**kern: > = above
!!!ENC: Mateusz Solarz
!!!END: 2020-10-01
!!!ENC: Marta Lawrence
!!!END: 2021-11-19
